X: 3
T: The Cobbler's
R: polka
M: 2/4
L: 1/8
K: Amin
cA aA | cd e>d | cA aA | B/A/G/B/ de/d/ |
cA aA | cd e>d | cd e/d/c/B/ | A2 A2 :|
a2 ge | dc e>d | cA aA | B/A/G/B/ d2 |
a2 ge | dc e>d | cd e/d/c/B/ | A2 A2 :|


Tune 1841	Setting 15271

